icons/System/star-s-fill.svg

<svg viewBox="0 0 24 24" xmlns="http://www.w3.org/2000/svg"><path d="M12.0008 17L6.12295 20.5902L7.72105 13.8906L2.49023 9.40983L9.35577 8.85942L12.0008 2.5L14.6458 8.85942L21.5114 9.40983L16.2806 13.8906L17.8787 20.5902L12.0008 17Z"/></svg>

<svg xmlns="http://www.w3.org/2000/svg" viewBox="0 0 24 24">
    <g>
        <path fill="none" d="M0 0h24v24H0z"/>
        <path d="M12 17l-5.878 3.59 1.598-6.7-5.23-4.48 6.865-.55L12 2.5l2.645 6.36 6.866.55-5.231 4.48 1.598 6.7z"/>
    </g>
</svg>
